X:1
T:Title
T:Pizza Mozzarella
T:Composer: Gyro Zeppeli
C:Composer
%%score 1 { 2 | 3 }
L:1/8
Q:1/4=125
M:4/4
K:C
V:1 treble nm="Gyro Zeppeli" snm="G.Z."
V:2 treble nm="Piano" snm="Pno."
V:3 bass 
V:1
"^\n" z8 | z4 z CD_E |: .E z A.E z CD_E | .E z A.E z CDE | F_B,DF AccB | _BF- F2 z CD_E | %6
 .E z A.E z CD_E | .E z A.E z CDE |"^Repeat 1st time ending for desired duration :)" F_B,DF AccB | %9
 _BF- F2 z4 |1 cccc z cf z | cccc z cf z | cccc cB_BF | E z C, z z CD_E :|2 FFFF z2 z ^F || %15
 z ^F=F z z4 |] %16
V:2
 z8 | z4 z CD_E |: .E z A.E z CD_E | .E z A.E z CDE | F_B,DF AccB | _BF- F2 z CD_E | %6
 .E z A.E z CD_E | .E z A.E z CDE | F_B,DF AccB | _BF- F2 z4 |1 [Ac][Ac][Ac][Ac] z f2 A | %11
 [_Ac][Ac][Ac][Ac] z f2 =A | [Fc][Fc][Fc][Fc] z [Dc] z [Fc] | [Ec] z z2 z CD_E :|2 %14
 [Acf][Acf][Acf][Acf] z2 z [^A^c^f] || z [^A^c^f][=A=c=f] z z [ff']- [ff']2 |] %16
V:3
 .F,,2 .C,2 .F,,2 .C,2 | .F,,2 .C,2 .F,,2 .C,2 |: .F,,2 .C,2 .F,,2 .C,2 | .F,,2 .C,2 .F,,2 .C,2 | %4
 .G,,2 .D,2 .G,,2 .D,2 | .G,,2 .D,2 .G,,2 z2 | .F,,2 .C,2 .F,,2 .C,2 | .F,,2 .C,2 .F,,2 .C,2 | %8
 .G,,2 .D,2 .G,,2 .D,2 | .G,,2 .D,2 .G,,2 .D,2 |1 A,,A,,A,,A,, z4 | _A,,A,,A,,A,, z4 | %12
 G,,G,,G,,G,, z G,, z G,, | [C,,C,] z z2 z4 :|2 z8 || z8 |] %16

